!!!!SEGMENT: pl-wtm--iii-41-764--001-002_rozycki-ludomir--deux-nocturnes-op-30-nocturne-ii.krn
!!!cenid: 19xx:138
!!!COM: Różycki, Ludomir
!!!COM-rismID: pe50045573
!!!CDT: 1883-1953
!!!CNT: Polish
!!!GTL: Deux Nocturnes op. 30
!!!OTL: Nocturne II.
!!!OMV: 002
!!!PDT: 1924
!!!AGN: Secular; Nocturne
!!!YEC: Copyright 2022 Narodowy Instytut Fryderyka Chopina (https://polishscores.org)
!!!YEM: License CC-BY-4.0 (https://creativecommons.org/licenses/by/4.0)
!!!SMS-siglum: PL-Wtm
!!!SMS-shelfmark: III.41.764
!!!SMS-variant:
!!!SMS-altvar:
!!!SMS-shelfwork: 001-002 G
!!!NIFC-rismSourceID: 1001137834
!!!NIFC-rismChildID: 1001137877
!!!NIFC-islandoraID: pl-wtm:21407
!!!URL-pdf-islandora: https://repozytorium.nifc.pl/islandora/object/pl-wtm%3A21407/datastream/PDF/view
!!!URL-scan: https://polish.musicsources.pl/pl/lokalizacje/galeria/druki-muzyczne/17632/3 @EN{Scan on Polish Music Sources Website} @PL{Skany w portalu Dziedzictwo Muzyki Polskiej w otwartym dostępie}
!!!IIIF:
!!!ONB-nifc: UWAGA: proszę przygotować partyturę z głosów (partia skrzypiec z dedykowanego jej zapisu a nie partii przypominającej dla fortepianu)
!!!AIN: 1 piano 1 violn
!!!key: f#
**kern	**kern	**dynam	**kern	**dynam
*part2	*part2	*part2	*part1	*part1
*staff3	*staff2	*	*staff1	*
*I"Piano.	*I"Piano.	*	*I"Violine.	*
*I'[pf]	*I'[pf]	*	*I'[vl]	*
*ICklav	*ICklav	*	*ICstr	*
*Ipiano	*Ipiano	*	*Ivioln	*
*clefF4	*clefG2	*	*clefG2	*
*k[f#c#g#]	*k[f#c#g#]	*	*k[f#c#g#]	*
*f#:	*f#:	*	*f#:	*
*M6/8	*M6/8	*	*M6/8	*
=1	=1	=1	=1	=1
!	!LO:TX:a:B:t=Andantino. M. M. [quarter] = 	!	!LO:TX:a:B:t=Andantino.	!
(>2.FFF#/ 2.FF#	(>2.A/ 2.c#	p	(4A/	p <
.	.	.	8c#/)	.
.	.	.	(8f#/L	[ >
.	.	.	8.a/	.
.	.	.	16f#/Jk)	]
=2	=2	=2	=2	=2
2.AAA/) 2.AA	2.Gn/) 2.c# 2.e#X	.	2.e#X/	.
=3	=3	=3	=3	=3
(>2.FFF#/ 2.FF#	(>2.A/ 2.c#	.	(4A/	<
.	.	.	8c#/)	.
.	.	.	(16f#/LL	.
.	.	.	16a/J	[ >
.	.	.	8.cc#/	.
.	.	.	16a/Jk)	]]
=4	=4	=4	=4	=4
2.BBB/) 2.BB	2.A/) 2.d#X 2.gn	.	2.gn/	.
=5	=5	=5	=5	=5
*	*^	*	*	*
!	!	!	!	!LO:TX:b:Bi:t=crescendo poco a poco_:problem:dynamics with line extensions	!LO:HP:t=crescendo poco a poco_
2.BBB/ 2.BB	2.dn/ 2.g#X	(4.G#\	.	(4g#X/	<
.	.	.	.	8b\)	.
.	.	4.B\)	.	(8dd\L	.
.	.	.	.	8.ff#\	.
.	.	.	.	16dd\Jk)	.
*	*v	*v	*	*	*
=6	=6	=6	=6	=6
*^	*	*	*	*
2.BB/	(4BB\	2.B/ 2.d 2.g#	.	(4.cc#\	.
.	8D\	.	.	.	.
.	8F#\L	.	.	4.b\)	.
.	8.A\	.	.	.	.
.	16G#\Jk)	.	.	.	.
*v	*v	*	*	*	*
=7	=7	=7	=7	=7
2.BB\ 2.G#	2.B/ 2.d 2.g#	.	(4g#/	.
.	.	.	8b\)	.
.	.	.	(8dd\L	.
.	.	.	8.ff#\	.
.	.	.	16dd\Jk)	.
=8	=8	=8	=8	=8
2.BB\ 2.Gn	2.B/ 2.d 2.gn	.	(4.aa\	>
.	.	.	4.ggn\)	]
!LO:LB:g=original	!	!	!LO:LB:g=original	!
=9	=9	=9	=9	=9
*ped	*	*	*	*
!	!	!	!LO:TX:b:t=agitato.	!
2.CC#/ 2.C#	2.B/ 2.e#X 2.a 2.cc#	.	([4.ee#X\	.
.	.	.	8ee#\L]	.
.	.	.	8cc#\	.
.	.	.	8ee#\J)	.
*Xped	*	*	*	*
=10	=10	=10	=10	=10
*ped	*	*	*	*
2.C#:\ 2.F#:	4.B:/ 4.en: 4.a:	.	2.een\	<[
.	4.cc#:\ 4.ccc#:	.	.	.
*Xped	*	*	*	*
=11	=11	=11	=11	=11
2.CC#/ 2.C#	2.B/ 2.e#X 2.a 2.cc#	.	([4.ee#X\	.
.	.	.	8ee#\L]	.
.	.	.	8cc#\	.
.	.	.	8ee#\J)	.
=12	=12	=12	=12	=12
2.C#:\ 2.F#:	4.B:/ 4.en: 4.a:	.	2.een\	.
.	4.cc#:\ 4.ccc#:	.	.	.
=13	=13	=13	=13	=13
2.BB\ 2.F#	2.B/ 2.d 2.a	.	(4ee\	.
.	.	.	[8dd\	.
.	.	.	8dd/L]	.
.	.	.	8f#/	.
.	.	.	8a/J)	.
=14	=14	=14	=14	=14
*^	*	*	*	*
2.F#/	[4.AA\	2.B/ 2.d 2.f#	.	(4cc#\	.
.	.	.	.	[8b\)	.
.	8.AA\L]	.	.	4.b\]	.
.	8.GG#\J	.	.	.	.
*v	*v	*	*	*	*
=15	=15	=15	=15	=15
2.FF#/ 2.F#	2.B/ 2.d 2.f# 2.b	.	(4aa\	.
.	.	.	[8gg#\)	.
.	.	.	8gg#\L]	.
.	.	.	(8dd\	.
.	.	.	8ff#\J)	.
=16	=16	=16	=16	=16
*	*^	*	*	*
2.CC#/ 2.C#	2.B/ 2.d 2.b	(>4.a\	.	(4.ff#\	.
.	.	4.g#\)	.	4.ee#X\)	.
*	*v	*v	*	*	*
!LO:LB:g=original	!	!	!	!
=17	=17	=17	=17	=17
*	*tremolo	*	*	*
!	!LO:TX:a:B:t=Poco più mosso, agitato, M. M. [quarter] =	!	!LO:TX:a:B:t=Poco più mosso, agitato.	!LO:DY:a
2.F#\	(32c#/LLL 32e	sfz	(4en/	f
.	32A/	.	.	.
.	32c#/ 32e	.	.	.
.	32A/	.	.	.
.	32c#/ 32e	.	.	.
.	32A/	.	.	.
.	32c#/ 32e	.	.	.
.	32A/	.	.	.
.	32c#/ 32e	.	8a/)	.
.	32A/	.	.	.
.	32c#/ 32e	.	.	.
.	32A/	.	.	.
.	32c#/ 32e	.	(16cc#\LL	.
.	32A/	.	.	.
.	32c#/ 32e	.	16een\J)	.
.	32A/	.	.	.
.	32c#/ 32e	.	(8.aa\	.
.	32A/	.	.	.
.	32c#/ 32e	.	.	.
.	32A/	.	.	.
.	32c#/ 32e	.	.	.
.	32A/	.	.	.
.	32c#/ 32e	.	16ff#\Jk)	.
.	32A/JJJ)	.	.	.
!	!	!	!LO:LB:g=original	!
=18	=18	=18	=18	=18
*^	*	*	*	*
2.Gn/	4.r	32c#/LLL 32e#X	.	[4.ee#X\	.
.	.	32A/	.	.	.
.	.	32c#/ 32e#	.	.	.
.	.	32A/	.	.	.
.	.	32c#/ 32e#	.	.	.
.	.	32A/	.	.	.
.	.	32c#/ 32e#	.	.	.
.	.	32A/	.	.	.
.	.	32c#/ 32e#	.	.	.
.	.	32A/	.	.	.
.	.	32c#/ 32e#	.	.	.
.	.	32A/	.	.	.
.	4CC#:\ 4C#:	32c#/ 32e#	.	32%3ee#/LL]	.
.	.	32A/	.	.	.
.	.	32c#/ 32e#	.	.	.
.	.	32A/	.	32%3cc#^/	.
.	.	32c#/ 32e#	.	.	.
.	.	32A/	.	.	.
.	.	32c#/ 32e#	.	32%3a^/	.
.	.	32A/	.	.	.
.	8r	32c#/ 32e#	.	.	.
.	.	32A/	.	32%3e#X^/JJ	.
.	.	32c#/ 32e#	.	.	.
.	.	32A/JJJ	.	.	.
*v	*v	*	*	*	*
=19	=19	=19	=19	=19
2.F#\	32c#/LLL 32en	sfz	(4en/	.
.	32A/	.	.	.
.	32c#/ 32e	.	.	.
.	32A/	.	.	.
.	32c#/ 32en	.	.	.
.	32A/	.	.	.
.	32c#/ 32e	.	.	.
.	32A/	.	.	.
.	32c#/ 32en	.	8a/)	.
.	32A/	.	.	.
.	32c#/ 32e	.	.	.
.	32A/	.	.	.
.	32c#/ 32en	.	(16cc#\LL	.
.	32A/	.	.	.
.	32c#/ 32e	.	16ee\J)	.
.	32A/	.	.	.
.	32c#/ 32en	.	(8.aa\	.
.	32A/	.	.	.
.	32c#/ 32e	.	.	.
.	32A/	.	.	.
.	32c#/ 32en	.	.	.
.	32A/	.	.	.
.	32c#/ 32e	.	16ff#\Jk)	.
.	32A/JJJ	.	.	.
=20	=20	=20	=20	=20
*^	*	*	*	*
2.Gn/	4.r	32c#/LLL 32e#X	.	[4.ee#X\	.
.	.	32A/	.	.	.
.	.	32c#/ 32e#	.	.	.
.	.	32A/	.	.	.
.	.	32c#/ 32e#	.	.	.
.	.	32A/	.	.	.
.	.	32c#/ 32e#	.	.	.
.	.	32A/	.	.	.
.	.	32c#/ 32e#	.	.	.
.	.	32A/	.	.	.
.	.	32c#/ 32e#	.	.	.
.	.	32A/	.	.	.
.	4CC#:\ 4C#:	32c#/ 32e#	.	32%3ee#/LL]	.
.	.	32A/	.	.	.
.	.	32c#/ 32e#	.	.	.
.	.	32A/	.	32%3cc#^/	.
.	.	32c#/ 32e#	.	.	.
.	.	32A/	.	.	.
.	.	32c#/ 32e#	.	32%3a^/	.
.	.	32A/	.	.	.
.	8r	32c#/ 32e#	.	.	.
.	.	32A/	.	32%3e#X^/JJ	.
.	.	32c#/ 32e#	.	.	.
.	.	32A/JJJ	.	.	.
*v	*v	*	*	*	*
=21	=21	=21	=21	=21
2.G#X\	(32d/LLL 32f#	.	(4f#/	.
.	32B/	.	.	.
.	32d/ 32f#	.	.	.
.	32B/	.	.	.
.	32d/ 32f#	.	.	.
.	32B/	.	.	.
.	32d/ 32f#	.	.	.
.	32B/	.	.	.
.	32d/ 32f#	.	8b/)	.
.	32B/	.	.	.
.	32d/ 32f#	.	.	.
.	32B/	.	.	.
.	32d/ 32f#	.	(16dd\LL	.
.	32B/	.	.	.
.	32d/ 32f#	.	16ff#\J)	.
.	32B/	.	.	.
.	32d/ 32f#	.	(8.bb\	.
.	32B/	.	.	.
.	32d/ 32f#	.	.	.
.	32B/	.	.	.
.	32d/ 32f#	.	.	.
.	32B/	.	.	.
.	32d/ 32f#	.	16gg#\Jk)	.
.	32B/JJJ)	.	.	.
=22	=22	=22	=22	=22
*^	*	*	*	*
2.G#/	4.r	(32d#X/LLL 32gn	.	[4.ggn\	.
.	.	32B/	.	.	.
.	.	32d#/ 32g	.	.	.
.	.	32B/	.	.	.
.	.	32d#/ 32g	.	.	.
.	.	32B/	.	.	.
.	.	32d#/ 32g	.	.	.
.	.	32B/	.	.	.
.	.	32d#/ 32g	.	.	.
.	.	32B/	.	.	.
.	.	32d#/ 32g	.	.	.
.	.	32B/	.	.	.
!	!	!	!	!LO:TUP:a	!
.	4.DD#X\ 4.D#X	32d#/ 32g	.	32%3gg\LL]	.
.	.	32B/	.	.	.
.	.	32d#/ 32g	.	.	.
.	.	32B/	.	32%3dd#X\	.
.	.	32d#/ 32g	.	.	.
.	.	32B/	.	.	.
.	.	32d#/ 32g	.	32%3b\	.
.	.	32B/	.	.	.
.	.	32d#/ 32g	.	.	.
.	.	32B/	.	32%3gn\JJ	.
.	.	32d#/ 32g	.	.	.
.	.	32B/JJJ)	.	.	.
*v	*v	*	*	*	*
=23	=23	=23	=23	=23
2.G#\	(32dn/LLL 32f#	.	(4f#/	.
.	32B/	.	.	.
.	32dn/ 32f#	.	.	.
.	32B/	.	.	.
.	32dn/ 32f#	.	.	.
.	32B/	.	.	.
.	32dn/ 32f#	.	.	.
.	32B/	.	.	.
.	32dn/ 32f#	.	8b/)	.
.	32B/	.	.	.
.	32dn/ 32f#	.	.	.
.	32B/	.	.	.
.	32dn/ 32f#	.	(16dd\LL	.
.	32B/	.	.	.
.	32dn/ 32f#	.	16ff#\J)	.
.	32B/	.	.	.
.	32dn/ 32f#	.	(8.bb\	.
.	32B/	.	.	.
.	32dn/ 32f#	.	.	.
.	32B/	.	.	.
.	32dn/ 32f#	.	.	.
.	32B/	.	.	.
.	32dn/ 32f#	.	16gg#\Jk)	.
.	32B/JJJ)	.	.	.
!LO:LB:g=original	!	!	!	!
=24	=24	=24	=24	=24
*^	*	*	*	*
2.A/	4.r	(32d#X/LLL 32gn	.	4.ggn\	.
.	.	32B/	.	.	.
.	.	32d#/ 32g	.	.	.
.	.	32B/	.	.	.
.	.	32d#/ 32g	.	.	.
.	.	32B/	.	.	.
.	.	32d#/ 32g	.	.	.
.	.	32B/	.	.	.
.	.	32d#/ 32g	.	.	.
.	.	32B/	.	.	.
.	.	32d#/ 32g	.	.	.
.	.	32B/	.	.	.
!	!	!	!	!LO:TUP:a	!
.	4.DD#X\ 4.D#X	32d#/ 32g	.	32%3gn\LL	.
.	.	32B/	.	.	.
.	.	32d#/ 32g	.	.	.
.	.	32B/	.	32%3b\	.
.	.	32d#/ 32g	.	.	.
.	.	32B/	.	.	.
.	.	32d#/ 32g	.	32%3dd#X\	.
.	.	32B/	.	.	.
.	.	32d#/ 32g	.	.	.
.	.	32B/	.	32%3gg\JJ	.
.	.	32d#/ 32g	.	.	.
.	.	32B/JJJ)	.	.	.
!	!	!	!	!LO:LB:g=original	!
*v	*v	*	*	*	*
=25	=25	=25	=25	=25
*ped	*	*	*	*
!	!	!	!LO:TX:b:Bi:t=molto crescendo_:problem:dynamics with line extensions	!LO:HP:t=molto crescendo_
4DDn/ 4Dn	([>2.g#X/	.	[4.gg#X\	<
([8G#\ [8B [8f#	.	.	.	.
8.G#\L] 8.B] 8.f#]	.	.	8gg#\L]	.
.	.	.	8aa^\	.
8.G#\J 8.B 8.f#	.	.	.	.
.	.	.	8bb^\J	.
=26	=26	=26	=26	=26
4G#\ 4B 4f#	8g#/L]	.	4ccc#^\	.
.	8a/	.	.	.
[8G#\ [8B [8f#	8b/J	.	[8ddd^\	.
8.G#\L] 8.B] 8.f#]	8cc#\L	.	8ddd\]	.
.	8dd\	.	4eee^\	.
8.G#\J) 8.B 8.f#	.	.	.	.
.	8ee\J	.	.	.
*Xped	*	*	*	*
=27	=27	=27	=27	=27
*ped	*	*	*	*
4.CC#/ 4.C#	2.e#X/) 2.a 2.cc# 2.ee#X	.	4.eee#X^\	.
[4.B\ [4.c# ([4.e#X	.	.	[4.a^\ [4.aaa	ff
=28	=28	=28	=28	=28
4.B\] 4.c#] 4.e#]	2.a\ 2.cc# 2.ee#X 2.aa	.	2.a\] 2.aaa]	.
4.A\ 4.c# 4.e#y)	.	.	.	.
*Xped	*	*	*	*
=29	=29	=29	=29	=29
*^	*	*	*	*
*tremolo	*	*	*	*	*
.	[8qFFF#\ [8qFF#	.	.	.	.
*ped	*	*	*	*	*
32C#/LLL 32F#	2.FFF#\] 2.FF#]	4cc#~\ 4ff# 4aa 4ccc#	f	4aa\	ff
32A/	.	.	.	.	.
32C#/ 32F#	.	.	.	.	.
32A/	.	.	.	.	.
32C#/ 32F#	.	.	.	.	.
32A/	.	.	.	.	.
32C#/ 32F#	.	.	.	.	.
32A/	.	.	.	.	.
32C#/ 32F#	.	[8a\ [8cc# [8ff# [8aa	.	8ccc#\	.
32A/	.	.	.	.	.
32C#/ 32F#	.	.	.	.	.
32A/	.	.	.	.	.
32C#/ 32F#	.	8a\] 8cc#] 8ff#] 8aa]	.	8fff#\L	.
32A/	.	.	.	.	.
32C#/ 32F#	.	.	.	.	.
32A/	.	.	.	.	.
32C#/ 32F#	.	4f#^\ 4a 4cc# 4ff#	.	8..aaa\	.
32A/	.	.	.	.	.
32C#/ 32F#	.	.	.	.	.
32A/	.	.	.	.	.
32C#/ 32F#	.	.	.	.	.
32A/	.	.	.	.	.
32C#/ 32F#	.	.	.	.	.
32A/JJJ	.	.	.	32fff#\Jkk	.
*Xped	*	*	*	*	*
*v	*v	*	*	*	*
=30	=30	=30	=30	=30
*	*^	*	*	*
*ped	*	*	*	*	*
!	!	!	!LO:HP:b=2	!	!
(4AAA/ 4AA	2.e#X~>/ 2.a 2.cc# 2.ee#X	2ryy	<	[4.eee#X\	.
8C#/	.	.	.	.	.
16E#X\LL	.	.	.	8eee#\L]	.
16A\J	.	.	.	.	.
!	!	!	!LO:HP:b=2	!	!
8.c#\	.	4ryy	[ >	8ccc#^\	.
.	.	.	.	8eee#^\J	.
16B\Jk)	.	.	]]	.	.
*Xped	*	*	*	*	*
*	*v	*v	*	*	*
!LO:PB:g=original	!	!	!	!
=31	=31	=31	=31	=31
*^	*	*	*	*
.	[8qFFF#\ [8qFF#	.	.	.	.
*	*^	*	*	*	*
*ped	*	*	*	*	*	*
4.B/	2.FFF#\] 2.FF#]	2.C#/ 2.F#	4ff#\ 4aa 4ccc# 4fff#	.	(4aa\	.
.	.	.	[8cc#\ [8ff# [8aa [8ccc#	.	8ccc#\)	.
8A/L	.	.	8cc#\] 8ff#] 8aa] 8ccc#]	.	16fff#\LL	.
.	.	.	.	.	16aaa\J	.
8c#/	.	.	4a\ 4cc# 4ff# 4aa	.	8..cccc#\	.
8f#/J	.	.	.	.	.	.
.	.	.	.	.	32aaa\Jkk	.
*Xped	*	*	*	*	*	*
*	*v	*v	*	*	*	*
=32	=32	=32	=32	=32	=32
*	*	*^	*	*	*
*ped	*	*	*	*	*	*
4.f#/	2.D#X\ 2.G#X 2.B#X	4g#\ 4b#X 4ff# 4gg#	4ryy	.	2.ggg#\	.
!	!	!LO:N:vis=4	!	!	!	!
.	.	8bb#X/	[8gg#\ [>8ggg#	.	.	.
8B#/L	.	4.bb#/	8.gg#\L] 8.ggg#]	.	.	.
8d/	.	.	.	.	.	.
.	.	.	8.ff#\J 8.fff#	.	.	.
8g#/J	.	.	.	.	.	.
*Xped	*	*	*	*	*	*
*v	*v	*	*	*	*	*
*	*v	*v	*	*	*
=33||	=33||	=33||	=33||	=33||
*M3/4	*M3/4	*	*M3/4	*
*ped	*	*	*	*
!	!	!LO:HP:t=dim. poco a poco	!	!
2DDn/ 2Dn	(2.ff#\ 2.bb 2.fff#	>	4gg#^\	.
.	.	.	4aa^\	.
[4G#\ [4Bn [4f#	.	.	4bb^\	.
=34	=34	=34	=34	=34
*	*^	*	*	*
4G#\] 4B] 4f#]	2.ff#/	2cc#\ 2ccc#	.	4ccc#^\	.
2G#\ 2B 2f#	.	.	.	4ddd^\	.
.	.	4b\) 4bb	.	4eee^\	.
!	!	!	!	!LO:LB:g=original	!
*Xped	*	*	*	*	*
*	*v	*v	*	*	*
=35||	=35||	=35||	=35||	=35||
*M6/8	*M6/8	*	*M6/8	*
*ped	*	*	*	*
4.CC#/ 4.C#	2.a~\ 2.cc# 2.ee#X 2.aa	.	4.eee#X\	.
[4.B\ [4.c# [4.e#X	.	.	[4.a\ [4.aaa	.
=36	=36	=36	=36	=36
4.B\] 4.c#] 4.e#]	2.aa\ 2.ccc# 2.eee#X 2.aaa	p	2.a\] 2.aaa]	.
4.A\ 4.c# 4.e#X	.	.	.	.
*Xped	*	*	*	*
*kcancel	*kcancel	*	*kcancel	*
!LO:LB:g=original	!	!	!	!
=37||	=37||	=37||	=37||	=37||
*k[f#c#]	*k[f#c#]	*	*k[f#c#]	*
*M3/4	*M3/4	*	*M3/4	*
*	*^	*	*	*
32FF#/LLL 32AA	(4A/	[2.A\	p	2ggg#X\	.
32D/	.	.	.	.	.
32FF#/ 32AA	.	.	.	.	.
32D/	.	.	.	.	.
32FF#/ 32AA	.	.	.	.	.
32D/	.	.	.	.	.
32FF#/ 32AA	.	.	.	.	.
32D/	.	.	.	.	.
32FF#/ 32AA	4B/	.	.	.	.
32D/	.	.	.	.	.
32FF#/ 32AA	.	.	.	.	.
32D/	.	.	.	.	.
32FF#/ 32AA	.	.	.	.	.
32D/	.	.	.	.	.
32FF#/ 32AA	.	.	.	.	.
32D/	.	.	.	.	.
32FF#/ 32AA	4c#/	.	.	[4fff#\	.
32D/	.	.	.	.	.
32FF#/ 32AA	.	.	.	.	.
32D/	.	.	.	.	.
32FF#/ 32AA	.	.	.	.	.
32D/	.	.	.	.	.
32FF#/ 32AA	.	.	.	.	.
32D/JJJ	.	.	.	.	.
=38	=38	=38	=38	=38	=38
!	!	!LO:TX:b:Bi:t=cresc._ :problem:dynamics with line extensions	!LO:HP:t=cresc._	!	!
32FF#/LLL 32AA	4d/	2.A\]	<	4fff#\]	.
32D/	.	.	.	.	.
32FF#/ 32AA	.	.	.	.	.
32D/	.	.	.	.	.
32FF#/ 32AA	.	.	.	.	.
32D/	.	.	.	.	.
32FF#/ 32AA	.	.	.	.	.
32D/	.	.	.	.	.
32FF#/ 32AA	8e/L	.	.	8ddd\L	.
32D/	.	.	.	.	.
32FF#/ 32AA	.	.	.	.	.
32D/	.	.	.	.	.
32FF#/ 32AA	8f#/J	.	.	8aa\	.
32D/	.	.	.	.	.
32FF#/ 32AA	.	.	.	.	.
32D/	.	.	.	.	.
32FF#/ 32AA	12g/L	.	.	8ff#\	.
32D/	.	.	.	.	.
32FF#/ 32AA	.	.	.	.	.
.	12g#X/	.	.	.	.
32D/	.	.	.	.	.
32FF#/ 32AA	.	.	.	8dd\J	.
32D/	.	.	.	.	.
.	12a/J	.	.	.	.
32FF#/ 32AA	.	.	.	.	.
32D/JJJ	.	.	.	.	.
*	*v	*v	*	*	*
=39||	=39||	=39||	=39||	=39||
*M6/8	*M6/8	*	*M6/8	*
*	*^	*	*	*
*	*	*tremolo	*	*	*
2.FF#:/ 2.C#: 2.A#X:	[4a#X/	32g\LLL	.	([4.a#X/	.
.	.	32e\	.	.	.
.	.	32g\	.	.	.
.	.	32e\	.	.	.
.	.	32g\	.	.	.
.	.	32e\	.	.	.
.	.	32g\	.	.	.
.	.	32e\	.	.	.
*	*Xtremolo	*	*	*	*
.	16a#/LL]	32g\	.	.	.
.	.	32e\	.	.	.
.	16dd/JJ	32g\	.	.	.
.	.	32e\	.	.	.
.	[4.dd/	32g\	.	4a#/]	.
.	.	32e\	.	.	.
.	.	32g\	.	.	.
.	.	32e\	.	.	.
.	.	32g\	.	.	.
.	.	32e\	.	.	.
.	.	32g\	.	.	.
.	.	32e\	.	.	.
.	.	32g\	.	8g/)	.
.	.	32e\	.	.	.
.	.	32g\	.	.	.
.	.	32e\JJJ	.	.	.
=40	=40	=40	=40	=40	=40
2.Gn\	4.dd/]	32a#X\LLL	>	8f#/L	.
.	.	32e\	.	.	.
.	.	32a#\	.	.	.
.	.	32e\	.	.	.
.	.	32a#\	.	8e/	.
.	.	32e\	.	.	.
.	.	32a#\	.	.	.
.	.	32e\	.	.	.
.	.	32a#\	.	8d/J	.
.	.	32e\	.	.	.
.	.	32a#\	.	.	.
.	.	32e\	.	.	.
.	4.cc#/)	32a#\	.	8c#/L	.
.	.	32e\	.	.	.
.	.	32a#\	.	.	.
.	.	32e\	.	.	.
.	.	32a#\	.	8B/	.
.	.	32e\	.	.	.
.	.	32a#\	.	.	.
.	.	32e\	.	.	.
.	.	32a#\	.	8A#X/J	.
.	.	32e\	.	.	.
.	.	32a#\	.	.	.
.	.	32e\JJJ	]]	.	.
*	*v	*v	*	*	*
=41	=41	=41	=41	=41
*M3/4	*M3/4	*	*M3/4	*
(32FF#/LLL 32AAn	(32d/LLL	.	4a\ 4aa	ff
32D/	32An/	.	.	.
32FF#/ 32AA	32d/	.	.	.
32D/	32A/	.	.	.
32FF#/ 32AAn	32d/	.	.	.
32D/	32A/	.	.	.
32FF#/ 32AA	32d/	.	.	.
32D/	32A/	.	.	.
!	!	!	!	!LO:HP:t=marcato cresc.possibile
32FF#/ 32AAn	32d/	.	4b\ 4bb	<
32D/	32A/	.	.	.
32FF#/ 32AA	32d/	.	.	.
32D/	32A/	.	.	.
32FF#/ 32AAn	32d/	.	.	.
32D/	32A/	.	.	.
32FF#/ 32AA	32d/	.	.	.
32D/	32A/	.	.	.
32FF#/ 32AAn	32d/	.	4cc#\ 4ccc#	.
32D/	32A/	.	.	.
32FF#/ 32AA	32d/	.	.	.
32D/	32A/	.	.	.
32FF#/ 32AAn	32d/	.	.	.
32D/	32A/	.	.	.
32FF#/ 32AA	32d/	.	.	.
32D/JJJ)	32A/JJJ)	.	.	.
=42	=42	=42	=42	=42
(32FF#/LLL 32AA	(32d/LLL	.	4dd\ 4ddd	.
32D/	32A/	.	.	.
32FF#/ 32AA	32d/	.	.	.
32D/	32A/	.	.	.
32FF#/ 32AA	32d/	.	.	.
32D/	32A/	.	.	.
32FF#/ 32AA	32d/	.	.	.
32D/	32A/	.	.	.
32FF#/ 32AA	32d/	.	8ee\L 8eee	.
32D/	32A/	.	.	.
32FF#/ 32AA	32d/	.	.	.
32D/	32A/	.	.	.
32FF#/ 32AA	32d/	.	8ff#\J 8fff#	.
32D/	32A/	.	.	.
32FF#/ 32AA	32d/	.	.	.
32D/	32A/	.	.	.
*	*	*	*Xtuplet	*
32FF#/ 32AA	32d/	.	12gg\L 12ggg	.
32D/	32A/	.	.	.
32FF#/ 32AA	32d/	.	.	.
.	.	.	12gg#X\ 12ggg#X	.
32D/	32A/	.	.	.
32FF#/ 32AA	32d/	.	.	.
32D/	32A/	.	.	.
.	.	.	12aa\J 12aaa	.
32FF#/ 32AA	32d/	.	.	.
32D/JJJ)	32A/JJJ)	.	.	.
!LO:LB:g=original	!	!	!LO:LB:g=original	!
=43||	=43||	=43||	=43||	=43||
*M6/8	*M6/8	*	*M6/8	*
32FF#/LLL	32A#X/LLL 32d	.	[4aa#X\ [4aaa#X	<
32E/	32G/	.	.	.
32FF#/	32A#/ 32d	.	.	.
32E/	32G/	.	.	.
32FF#/	32A#/ 32d	.	.	.
32E/	32G/	.	.	.
32FF#/	32A#/ 32d	.	.	.
32E/	32G/	.	.	.
32FF#/	32A#/ 32d	.	16aa#\LL] 16aaa#]	.
32E/	32G/	.	.	.
32FF#/	32A#/ 32d	.	16ddd\JJ 16dddd	.
32E/	32G/	.	.	.
32FF#/	32A#/ 32d	.	[4.ddd\ [4.dddd	[ >
32E/	32G/	.	.	.
32FF#/	32A#/ 32d	.	.	.
32E/	32G/	.	.	.
32FF#/	32A#/ 32d	.	.	.
32E/	32G/	.	.	.
32FF#/	32A#/ 32d	.	.	.
32E/	32G/	.	.	.
32FF#/	32A#/ 32d	.	.	.
32E/	32G/	.	.	.
32FF#/	32A#/ 32d	.	.	.
32E/JJJ	32G/JJJ	.	.	.
=44	=44	=44	=44	=44
32FF#/LLL	32A#X/LLL 32d	.	4.ddd\] 4.dddd]	.
32E/	32G/	.	.	.
32FF#/	32A#/ 32d	.	.	.
32E/	32G/	.	.	.
32FF#/	32A#/ 32d	.	.	.
32E/	32G/	.	.	.
32FF#/	32A#/ 32d	.	.	.
32E/	32G/	.	.	.
32FF#/	32A#/ 32d	.	.	.
32E/	32G/	.	.	.
32FF#/	32A#/ 32d	.	.	.
32E/	32G/JJJ	.	.	.
32FF#/	32A#/LLL 32c#	.	4.ccc#\ 4.cccc#	]
32E/	32G/	.	.	.
32FF#/	32A#/ 32c#	.	.	.
32E/	32G/	.	.	.
32FF#/	32A#/ 32c#	.	.	.
32E/	32G/	.	.	.
32FF#/	32A#/ 32c#	.	.	.
32E/	32G/	.	.	.
32FF#/	32A#/ 32c#	.	.	.
32E/	32G/	.	.	.
32FF#/	32A#/ 32c#	.	.	.
32E/JJJ	32G/JJJ	.	.	.
*	*clefF4	*	*	*
=45	=45	=45	=45	=45
*M2/4	*M2/4	*	*	*
*	*^	*	*	*
*ped	*	*	*	*	*
!	!LO:TX:t=P:problem:w partii fortepianu na dwa takty metrum zmienione na 2/4	!	!	!	!
!	!LO:TX:t=P:problem: klucz zapisany po metrum	!	!	!	!
8r	4c#^/	32c#\LLL	p	[4.ccc#\ [4.cccc#	.
.	.	32B\	.	.	.
.	.	32F#\	.	.	.
.	.	32D\JJJ	.	.	.
32BB/LLL	.	8r	.	.	.
32FF#/	.	.	.	.	.
32DD/	.	.	.	.	.
32FFF#/JJJ	.	.	.	.	.
8ryy	8ryy	8ryy	.	.	.
8r	4d^/	32d\LLL	.	4ccc#\] 4cccc#]	.
.	.	32B\	.	.	.
.	.	32F#\	.	.	.
.	.	32D\JJJ	.	.	.
32BB/LLL	.	8r	.	.	.
32FF#/	.	.	.	.	.
32DD/	.	.	.	.	.
32FFF#/JJJ	.	.	.	.	.
8ryy	8ryy	8ryy	.	[8bb\ [8bbb	.
*Xped	*	*	*	*	*
=46	=46	=46	=46	=46	=46
*ped	*	*	*	*	*
8r	4e^/	32e\LLL	.	8bb\L] 8bbb]	.
.	.	32d\	.	.	.
.	.	32B\	.	.	.
.	.	32F#\JJJ	.	.	.
32BB/LLL	.	8r	.	8b\ 8bb	.
32FF#/	.	.	.	.	.
32DD/	.	.	.	.	.
32FFF#/JJJ	.	.	.	.	.
8ryy	8ryy	8ryy	.	8cc#\ 8ccc#	.
8r	4f#^/	32f#\LLL	.	8dd\ 8ddd	.
.	.	32d\	.	.	.
.	.	32B\	.	.	.
.	.	32F#\JJJ	.	.	.
32BB/LLL	.	4ryy	.	8ee\ 8eee	.
32FF#/	.	.	.	.	.
32DD/	.	.	.	.	.
32FFF#/JJJ	.	.	.	.	.
8ryy	8ryy	.	.	8ff#\J 8fff#	.
*	*v	*v	*	*	*
*Xped	*clefG2	*	*	*
!LO:LB:g=original	!	!	!	!
=47	=47	=47	=47	=47
*M6/8	*M6/8	*	*	*
*ped	*	*	*	*
!	!LO:TX:t=P:problem:w partii fortepianu metrum zmienione na 6/8	!	!	!
16a>\LL	NNN(4.a^/	.	4.ff#\ 4.fff#	.
16f#>\	.	.	.	.
16B>\	.	.	.	.
16A>\JJ	.	.	.	.
24F#\LL	.	.	.	.
24BB\	.	.	.	.
24EE\JJNNN)	.	.	.	.
16g>\LL	NNN(4.g^/	.	[4.gg\ [4.ggg	.
16e>\	.	.	.	.
16B>\	.	.	.	.
16G>\JJ	.	.	.	.
24E\LL	.	.	.	.
24BB\	.	.	.	.
24EE\JJNNN)	.	.	.	.
*Xped	*	*	*	*
=48	=48	=48	=48	=48
*^	*^	*	*	*
*ped	*	*	*	*	*	*
4ryy	2.DD/	16cc#/LL	NNN(>4.cc#\	.	8gg\L] 8ggg]	.
.	.	16g/	.	.	.	.
.	.	16e/	.	.	8eee\	.
.	.	16c#/JJ	.	.	.	.
24G\LL	.	8ryy	.	.	8fff#\J	.
24E\	.	.	.	.	.	.
24BB\JJNNN)	.	.	.	.	.	.
4ryy	.	16b/LL	NNN(>4.b\	.	8ggg\L	.
.	.	16g/	.	.	.	.
.	.	16e/	.	.	8aaa\	.
.	.	16B/JJ	.	.	.	.
24G\LL	.	8ryy	.	.	8bbb\J	.
24E\	.	.	.	.	.	.
24BB\JJNNN)	.	.	.	.	.	.
*Xped	*	*	*	*	*	*
=49	=49	=49	=49	=49	=49	=49
*ped	*	*	*	*	*	*
4ryy	2.CC#/	16ff#/LL	NNN(<4.ff#\	.	([4.cccc#\	.
.	.	16b/	.	.	.	.
.	.	16g/	.	.	.	.
.	.	16f#/JJ	.	.	.	.
24B\LL	.	8ryy	.	.	.	.
24G\	.	.	.	.	.	.
24C#\JJNNN)	.	.	.	.	.	.
!	!	!LO:TX:b:i:t=rit.	!	!	!LO:TX:b:i:t=rit.	!
4ryy	.	16ee/LL	NNN(<4.ee\	.	8cccc#\L]	.
.	.	16b/	.	.	.	.
.	.	16g/	.	.	8ddd\	.
.	.	16e/JJ	.	.	.	.
24B\LL	.	8ryy	.	.	8eee\J)	.
24G\	.	.	.	.	.	.
24C#\JJNNN)	.	.	.	.	.	.
*Xped	*	*	*	*	*	*
!LO:PB:g=original	!	!	!	!	!	!
=50	=50	=50	=50	=50	=50	=50
*ped	*	*	*	*	*	*
4ryy	2.BBB/	16aa/LL	NNN(<4.aa\	.	([4.fff#\	.
.	.	16ff#/	.	.	.	.
.	.	16b/	.	.	.	.
.	.	16a/JJ	.	.	.	.
24d\LL	.	8ryy	.	.	.	.
24G\	.	.	.	.	.	.
24E\JJNNN)	.	.	.	.	.	.
4ryy	.	16gg/LL	NNN(<4.gg\	.	4fff#\]	.
.	.	16ee/	.	.	.	.
.	.	16b/	.	.	.	.
.	.	16g/JJ	.	.	.	.
24d\LL	.	8ryy	.	.	8ggg\)	.
24G\	.	.	.	.	.	.
24E\JJNNN)	.	.	.	.	.	.
*Xped	*	*	*	*	*	*
*v	*v	*	*	*	*	*
*	*v	*v	*	*	*
=51	=51	=51	=51	=51
*ped	*	*	*	*
8AAA/	8r	.	([4.ggg#X\	.
[4F#\ [4B [4d [4f#	([4b\ [4dd [4bb	.	.	.
4F#\] 4B] 4d] 4f#]	4b\] 4dd] 4bb]	.	4ggg#\]	.
8F#\ 8A 8d 8f#	8a\ 8dd 8aa	.	8aaa\)	.
*Xped	*	*	*	*
!	!	!	!LO:LB:g=original	!
=52	=52	=52	=52	=52
*ped	*	*	*	*
2.AA:\ 2.G#X: 2.d:	2.f#\) 2.b 2.ff#	.	([4.fff#\	.
.	.	.	8fff#\L]	.
.	.	.	8ddd\	.
.	.	.	8bb\J)	.
*Xped	*	*	*	*
=53	=53	=53	=53	=53
*ped	*	*	*	*
8AAA/	8r	.	([4.gg#X\	.
[4F#\ [4B [4d [4f#	([4b\ [4dd [4bb	.	.	.
4F#\] 4B] 4d] 4f#]	4b\] 4dd] 4bb]	.	4gg#\]	.
8F#\ 8A 8d 8f#	8a\ 8dd 8aa	.	8aa\)	.
*Xped	*	*	*	*
=54	=54	=54	=54	=54
*ped	*	*	*	*
2.AA:\ 2.G#X: 2.d:	2.f#\) 2.b 2.ff#	.	([4.ff#\	.
.	.	.	8ff#\L]	.
.	.	.	8dd\	.
.	.	.	8b\J)	.
*Xped	*	*	*	*
!LO:LB:g=original	!	!	!	!
=55	=55	=55	=55	=55
[2.AA/ [2.G	[2.c#/ (>2.f#	.	2.f#/	.
=56	=56	=56	=56	=56
2.AA;</] 2.G]	2.c#;/] 2.e#X)	.	([4.e#X/	.
.	.	.	4e#/]	.
.	.	.	8b;/)	.
=57||	=57||	=57||	=57||	=57||
*M3/4	*M3/4	*	*M3/4	*
!	!	!	!LO:TX:a:t=4	!
!	!	!LO:DY:t=ff marcato	!LO:N:vis=00	!
2DD/ 2D	4a\ 4dd 4ff# 4aa	ff	0.r	.
.	4b\ 4bb	.	.	.
*clefG2	*	*	*	*
[4B/ [4d [4f# [4b	4cc#\ 4ccc#	.	.	.
=58	=58	=58	=58	=58
4B/] 4d] 4f#] 4b]	4dd\ 4ddd	.	.	.
*clefF4	*	*	*	*
4A\ 4d 4f# 4a	8ee\L 8eee	.	.	.
.	8ff#\J 8fff#	.	.	.
!	!LO:TUP:a	!	!	!
4F#\ 4A 4d 4f#	12gg\L 12ggg	.	.	.
.	12gg#X\ 12ggg#X	.	.	.
.	12aa\J 12aaa	.	.	.
=59	=59	=59	=59	=59
*^	*	*	*	*
*	*	*8va	*	*	*
4r	[2.FFF#\ [2.FF#	8.aa#X\L 8.eee 8.gggn 8.aaa#X	.	.	.
.	.	16ddd\Jk 16dddd	.	.	.
[<2E/ [<2G [2A#X [2d	.	[2ddd\ [2ggg [2aaa# [2dddd	.	.	.
=60	=60	=60	=60	=60	=60
4E/] 4G] 4A#] 4d]	2.FFF#\] 2.FF#]	4ddd\] 4ggg] 4aaa#] 4dddd]	.	.	.
4E/ 4G 4A#X 4c#	.	4ccc#\ 4ggg 4aaa#X 4cccc#	.	.	.
4r	.	4r	.	.	.
*	*	*X8va	*	*	*
*v	*v	*	*	*	*
*	*clefF4	*	*	*
!LO:LB:g=original	!	!	!	!
=61	=61	=61	=61	=61
[2.FFn/ [>2.BB [2.D	[2.G\ [2.B	pp	8.r	mf
.	.	.	16cc#\	.
.	.	.	[2cc#\	.
=62	=62	=62	=62	=62
2.FF/] 2.BB] 2.D]	2.G\] 2.B]	.	4cc#\]	.
.	.	.	2b\	.
=63	=63	=63	=63	=63
[2.EE/ [>2.AA [2.C#	([2.G\ [2.B	.	8.r	.
.	.	.	16b\	.
.	.	.	[2b\	.
=64	=64	=64	=64	=64
*	*^	*	*	*
2.EE/] 2.AA] 2.C#]	4B/]	2.G\]	.	4b\]	.
.	2A/)	.	.	2a/	.
!	!	!	!	!LO:LB:g=original	!
*	*v	*v	*	*	*
*	*clefG2	*	*	*
=65	=65	=65	=65	=65
!LO:TX:t=P:problem: od t. 65 do t. 80 problem wyświetlania VHV - łuk między systemami źle się wyświetla po wpisaniu "N"	!	!	!	!
!LO:TUP:b	!	!	!LO:TX:a:B:t=Lento.	!
NN(12DD/L	4r	pp	[2.ff#\	.
12AA/	.	.	.	.
12F#/J	.	.	.	.
!	!LO:TX:b:i:t=quasi arpa	!	!	!
4r	16B/LL	.	.	.
.	16d/	.	.	.
.	16f#/	.	.	.
.	16b/JJ	.	.	.
4r	16d/LL	.	.	.
.	16f#/	.	.	.
.	16b/	.	.	.
.	16dd/JJNN)	.	.	.
=66	=66	=66	=66	=66
!LO:TUP:b	!	!	!	!
NN(12DD/L	4r	.	4ff#\]	.
12AA/	.	.	.	.
12F#/J	.	.	.	.
4r	16B/LL	.	(8ee\L	.
.	16d/	.	.	.
.	16f#/	.	8dd\	.
.	16b/JJ	.	.	.
4r	16d/LL	.	8.cc#\	.
.	16f#/	.	.	.
.	16b/	.	.	.
.	16dd/JJNN)	.	16b\Jk)	.
!LO:LB:g=original	!	!	!	!
=67	=67	=67	=67	=67
!LO:TUP:b	!	!	!	!
NN(12DD/L	4r	.	(<2.b\	.
12AA/	.	.	.	.
12G/J	.	.	.	.
4r	16B/LL	.	.	.
.	16c#/	.	.	.
.	16e#X/	.	.	.
.	16b/JJ	.	.	.
4r	16c#/LL	.	.	.
.	16e#/	.	.	.
.	16a/	.	.	.
.	16cc#/JJNN)	.	.	.
=68	=68	=68	=68	=68
!LO:TUP:b	!	!	!	!
NN(12DD/L	4r	.	[2a/	.
12AA/	.	.	.	.
12G/J	.	.	.	.
4r	16B/LL	.	.	.
.	16c#/	.	.	.
.	16e#X/	.	.	.
.	16b/JJ	.	.	.
4r	16c#/LL	.	8a/L])	.
.	16e#/	.	.	.
.	16a/	.	16r	.
.	16cc#/JJNN)	.	(16a/Jk	.
=69	=69	=69	=69	=69
!LO:TUP:b	!	!	!LO:N:vis=2	!
NN(12DD/L	4r	.	[2.bb\)	.
12AA/	.	.	.	.
12F#/J	.	.	.	.
4r	16B/LL	.	.	.
.	16d/	.	.	.
.	16f#/	.	.	.
.	16b/JJ	.	.	.
4r	16d/LL	.	.	.
.	16f#/	.	.	.
.	16b/	.	.	.
.	16dd/JJNN)	.	.	.
=70	=70	=70	=70	=70
!LO:TUP:b	!	!	!	!
NN(12DD/L	4r	.	4bb\]	.
12AA/	.	.	.	.
12F#/J	.	.	.	.
4r	16B/LL	.	(4aa\	.
.	16d/	.	.	.
.	16f#/	.	.	.
.	16b/JJ	.	.	.
4r	16d/LL	.	8gg\L	.
.	16f#/	.	.	.
.	16b/	.	8ff#\J)	.
.	16dd/JJNN)	.	.	.
!LO:PB:g=original	!	!	!	!
=71	=71	=71	=71	=71
!LO:TUP:b	!	!	!	!
NN(12DD/L	4r	.	(2ff#\	.
12AA/	.	.	.	.
12G/J	.	.	.	.
4r	16B/LL	.	.	.
.	16c#/	.	.	.
.	16e#X/	.	.	.
.	16b/JJ	.	.	.
4r	16c#/LL	.	[4ee#X\)	.
.	16e#/	.	.	.
.	16a/	.	.	.
.	16cc#/JJNN)	.	.	.
=72	=72	=72	=72	=72
!LO:TUP:b	!	!	!	!
NN(12DD/L	4r	.	4ee#\]	.
12AA/	.	.	.	.
12G/J	.	.	.	.
4r	16B/LL	.	(4..b\	.
.	16c#/	.	.	.
.	16e#X/	.	.	.
.	16b/JJ	.	.	.
4r	16c#/LL	.	.	.
.	16e#/	.	.	.
.	16a/	.	.	.
.	16cc#/JJNN)	.	16a/)	.
=73	=73	=73	=73	=73
!LO:TUP:b	!	!	!	!
NN(12DD/L	4r	.	[2.ff#\	.
12AA/	.	.	.	.
12F#/J	.	.	.	.
4r	16B/LL	.	.	.
.	16d/	.	.	.
.	16f#/	.	.	.
.	16b/JJ	.	.	.
4r	16d/LL	.	.	.
.	16f#/	.	.	.
.	16b/	.	.	.
.	16dd/JJNN)	.	.	.
=74	=74	=74	=74	=74
!LO:TUP:b	!	!	!	!
NN(12DD/L	4r	.	4ff#\]	.
12AA/	.	.	.	.
12F#/J	.	.	.	.
4r	16B/LL	.	(8ee\L	.
.	16d/	.	.	.
.	16f#/	.	8dd\J	.
.	16b/JJ	.	.	.
4r	16d/LL	.	8.cc#\L	.
.	16f#/	.	.	.
.	16b/	.	.	.
.	16dd/JJNN)	.	16b\Jk)	.
!	!	!	!LO:LB:g=original	!
=75	=75	=75	=75	=75
!LO:TUP:b	!	!	!	!
NN(12DD/L	4r	.	(2.b\	.
12AA/	.	.	.	.
12G/J	.	.	.	.
4r	16B/LL	.	.	.
.	16c#/	.	.	.
.	16e#X/	.	.	.
.	16b/JJ	.	.	.
4r	16c#/LL	.	.	.
.	16e#/	.	.	.
.	16a/	.	.	.
.	16cc#/JJNN)	.	.	.
=76	=76	=76	=76	=76
!LO:TUP:b	!	!	!	!
NN(12DD/L	4r	.	[2a/)	.
12AA/	.	.	.	.
12G/J	.	.	.	.
4r	16B/LL	.	.	.
.	16c#/	.	.	.
.	16e#X/	.	.	.
.	16b/JJ	.	.	.
4r	16c#/LL	.	8a/L]	.
.	16e#/	.	.	.
.	16a/	.	16r	.
.	16cc#/JJNN)	.	16a/Jk	.
=77	=77	=77	=77	=77
!LO:TUP:b	!	!	!	!
NN(12DD/L	4r	.	[2.bb\	.
12AA/	.	.	.	.
12F#/J	.	.	.	.
4r	16B/LL	.	.	.
.	16d/	.	.	.
.	16f#/	.	.	.
.	16b/JJ	.	.	.
4r	16d/LL	.	.	.
.	16f#/	.	.	.
.	16b/	.	.	.
.	16dd/JJNN)	.	.	.
=78	=78	=78	=78	=78
!LO:TUP:b	!	!	!	!
NN(12DD/L	4r	.	4bb\]	.
12AA/	.	.	.	.
12F#/J	.	.	.	.
4r	16B/LL	.	(4aa\	.
.	16d/	.	.	.
.	16f#/	.	.	.
.	16b/JJ	.	.	.
4r	16d/LL	.	8gg\L	.
.	16f#/	.	.	.
.	16b/	.	8ff#\J)	.
.	16dd/JJNN)	.	.	.
=79	=79	=79	=79	=79
!LO:TUP:b	!	!	!	!
NN(12DD/L	4r	.	(2ff#\	.
12AA/	.	.	.	.
12G/J	.	.	.	.
4r	16B/LL	.	.	.
.	16c#/	.	.	.
.	16e#X/	.	.	.
.	16b/JJ	.	.	.
4r	16c#/LL	.	[4ee#X\)	.
.	16e#/	.	.	.
.	16a/	.	.	.
.	16cc#/JJNN)	.	.	.
=80	=80	=80	=80	=80
!LO:TUP:b	!	!	!	!
NN(12DD/L	4r	.	4ee#\]	.
12AA/	.	.	.	.
12G/J	.	.	.	.
4r	16B/LL	.	(4..b\	.
.	16c#/	.	.	.
.	16e#X/	.	.	.
.	16b/JJ	.	.	.
4r	16c#/LL	.	.	.
.	16e#/	.	.	.
.	16a/	.	.	.
.	16cc#/JJNN)	.	16a/)	.
=81	=81	=81	=81	=81
*	*^	*	*	*
2.DD/ 2.AA 2.F#	(4A/	[2.A\	.	[2.ff#\	.
.	4B/	.	.	.	.
.	4c#/	.	.	.	.
=82	=82	=82	=82	=82	=82
2.DD/ 2.AA 2.F#	4d/	2.A\]	.	4ff#\]	.
.	8e/L	.	.	(8ee\L	.
.	8f#/J	.	.	8dd\J	.
!	!LO:TUP:b	!	!	!	!
.	12g/L	.	.	8.cc#\L	.
.	12g#X/	.	.	.	.
.	12a/J	.	.	.	.
.	.	.	.	16b\Jk)	.
*	*v	*v	*	*	*
=83	=83	=83	=83	=83
[2.DD/ [2.AA [2.Fn	[2.A/ [2.fn [2.a [2.b	.	(2.b\	.
=84	=84	=84	=84	=84
2.DD/] 2.AA] 2.F]	2.A/] 2.f] 2.a] 2.b]	.	2.a/)	.
!LO:LB:g=original	!	!	!	!
=85	=85	=85	=85	=85
[2.CC#/ [2.C#	[2.B/ [2.e#X [2.a [2.cc#)	.	(2.a/	.
=86	=86	=86	=86	=86
2.CC#,/] 2.C#]	2.B,/] 2.e#] 2.a] 2.cc#]	.	2.gn,/)	.
=87||	=87||	=87||	=87||	=87||
*k[f#c#g#]	*k[f#c#g#]	*	*k[f#c#g#]	*
*M6/8	*M6/8	*	*M6/8	*
!	!LO:TX:B:a:t=Andantino.	!	!LO:TX:B:a:t=Andantino.	!
[2.FFF#/ [2.FF#	4.f#~/ 4.a 4.cc# 4.ff#	p	(4A/	p
.	.	.	8c#/)	.
.	4.f#~/ 4.a 4.cc# 4.ff#	.	(8f#/L	.
.	.	.	8.a/	.
.	.	.	16f#/Jk)	.
=88	=88	=88	=88	=88
2.FFF#/] 2.FF#]	4.e#X~/ 4.a 4.cc# 4.ee#X	.	2.e#X/	.
.	4.e#~/ 4.a 4.cc# 4.ee#	.	.	.
=89	=89	=89	=89	=89
[2.FFF#/ [2.FF#	4.en~/ 4.a 4.cc# 4.een	.	(4A/	.
.	.	.	8c#/)	.
.	4.e~/ 4.a 4.cc# 4.ee	.	(16f#/LL	.
.	.	.	16a/J	.
.	.	.	8.cc#/	.
.	.	.	16a/Jk)	.
=90	=90	=90	=90	=90
2.FFF#/] 2.FF#]	4.d#X~/ 4.gn 4.b 4.dd#X	.	2.gn/	.
.	4.d#~/ 4.g 4.b 4.dd#	.	.	.
=91	=91	=91	=91	=91
[2.FFF#/ [2.FF#	4.dn~/ 4.f# 4.b 4.ddn	.	(4g#X/	.
.	.	.	8b\)	.
.	4.d~/ 4.f# 4.b 4.dd	.	(8dd\L	.
.	.	.	8.ff#\	.
.	.	.	16dd\Jk)	.
!LO:LB:g=original	!	!	!	!
=92	=92	=92	=92	=92
2.FFF#/] 2.FF#]	4.d~/ 4.f# 4.cc# 4.dd	.	(4.cc#\	.
.	4.d~/ 4.f# 4.b 4.dd	.	4.b\)	.
=93	=93	=93	=93	=93
[2.FFF#/ [2.FF#	4.B~/ 4.d 4.f# 4.b	.	(4g#/	.
.	.	.	8b\)	.
.	4.B~/ 4.d 4.f# 4.b	.	(8dd\L	.
.	.	.	8.ff#\	.
.	.	.	16dd\Jk)	.
=94	=94	=94	=94	=94
2.FFF#/] 2.FF#]	4.B~/ 4.d 4.a 4.b	.	(4.aa\	.
.	4.B~/ 4.d 4.gn 4.b	.	4.ggn\)	.
=95	=95	=95	=95	=95
2.FFF#/ 2.FF#	4.B~/ 4.c# 4.e#X 4.b	.	([4.ee#X\	.
.	4.B~/ 4.c# 4.e# 4.b	.	8ee#\L]	.
.	.	.	8cc#\	.
.	.	.	8ee#\J)	.
!	!	!	!LO:LB:g=original	!
=96	=96	=96	=96	=96
2.C#\ 2.c#	4.B~>/ 4.en 4.a	.	2.een\	.
.	4.B~>/ 4.e 4.a	.	.	.
=97	=97	=97	=97	=97
2.FFF#/ 2.FF#	4.B~>/ 4.e#X 4.a	.	([4.ee#X\	.
.	4.B~>/ 4.e# 4.a	.	8ee#\L]	.
.	.	.	8cc#\	.
.	.	.	8ee#\J)	.
=98	=98	=98	=98	=98
2.C#\ 2.c#	4.B~>/ 4.en 4.a	.	2.een\	.
.	4.B~>/ 4.e 4.a	.	.	.
!LO:LB:g=original	!	!	!	!
=99	=99	=99	=99	=99
2.FF#~/ 2.C# 2.F#	4.A~/ 4.c# 4.a	.	([4.cc#\	.
.	4.A~/ 4.d 4.a	.	8cc#\L]	.
.	.	.	8a\	.
.	.	.	8cc#\J)	.
=100	=100	=100	=100	=100
2.FF#~/ 2.C# 2.E#X	4.A~/ 4.d#X 4.a	.	2.cc#\	.
.	4.A~/ 4.e#X 4.a	.	.	.
=101	=101	=101	=101	=101
2.FF#~/ 2.C# 2.F#	4.A~/ 4.c# 4.a	.	([4.cc#\	.
.	4.A~/ 4.d 4.a	.	8cc#\L]	.
.	.	.	8a\	.
.	.	.	8cc#\J)	.
=102	=102	=102	=102	=102
2.FF#~/ 2.C# 2.E#X	4.A~/ 4.d#X 4.a	.	2.cc#\	.
.	4.A~/ 4.e#X 4.a	.	.	.
=103	=103	=103	=103	=103
[2.FFF#/ [2.FF#	4.A~/ 4.f# 4.a	.	([4.a/	.
.	4.c#~/ 4.f# 4.a	.	8a/L]	.
.	.	.	8f#/	.
.	.	.	8a/J)	.
=104	=104	=104	=104	=104
2.FFF#/] 2.FF#]	4.A~/ 4.f# 4.a	.	([4.a/	.
.	4.c#~/ 4.f# 4.a	.	8a/L]	.
.	.	.	8f#/	.
.	.	.	8a/J)	.
=105	=105	=105	=105	=105
[2.FFF#/ [2.FF#	[2.c#/ [>2.f# [2.a	.	[2.a/	.
=106	=106	=106	=106	=106
2.FFF#;/] 2.FF#]	2.c#;/] 2.f#] 2.a]	.	2.a;/]	.
==	==	==	==	==
*-	*-	*-	*-	*-
!!!system-decoration: s1{(s2,s3)}
!!!RDF**kern: > = above
!!!RDF**kern: < = below
!!!RDF**kern: N = linked
!!!RDF**kern: NN = linked
!!!RDF**kern: NNN = linked
!!!ENC: Andrzej Gręziak
!!!END: 2023-10-24
!!!EED: Jan Barakat
!!!EEV: 2023-11-14
